icons/helicopter.svg

<svg width="48" height="48" viewBox="0 0 48 48" fill="none" xmlns="http://www.w3.org/2000/svg">
<path fill-rule="evenodd" clip-rule="evenodd" d="M42.1198 16.1733L43.9264 20.6238L42.0733 21.3761L40.4088 17.2755L30.9957 18.0673C30.958 21.8374 30.6493 25.4395 29.1093 28.1602C28.2568 29.6662 27.0335 30.8958 25.3166 31.7374C23.6149 32.5716 21.4795 33 18.8268 33C13.7179 33 11.0172 32.8968 9.58385 32.7909C8.86948 32.7381 8.44754 32.6832 8.18921 32.6344C8.06047 32.6101 7.95196 32.5836 7.85846 32.5518C7.8108 32.5356 7.75673 32.5146 7.70033 32.4864C7.67156 32.472 7.63935 32.4544 7.60529 32.4328C7.58812 32.4219 7.56996 32.4096 7.55114 32.3959C7.54171 32.3891 7.53204 32.3818 7.52218 32.374L7.50723 32.3621L7.49963 32.3558C7.49578 32.3526 7.49196 32.3493 8.13944 31.5873C7.20158 31.9343 7.20096 31.9326 7.20096 31.9326L7.20022 31.9306L7.19837 31.9255L7.19331 31.9114C7.18934 31.9002 7.18421 31.8855 7.17806 31.8674C7.16577 31.8313 7.14941 31.7814 7.13016 31.7188C7.09171 31.5936 7.04161 31.4169 6.98958 31.1959C6.88572 30.7549 6.7729 30.1321 6.73112 29.3868C6.64764 27.8978 6.84667 25.8871 8.00004 23.8702C9.74411 20.8204 13.4985 18.0189 21 16.795V14C21 13.4477 21.4477 13 22 13C22.5523 13 23 13.4477 23 14V16.5174C25.066 16.2778 27.3821 16.1468 29.9767 16.146L40.3044 15.2773L42.0453 9.7019L43.9544 10.298L42.1198 16.1733ZM8.93291 30.7229C8.85169 30.3748 8.76162 29.8749 8.72798 29.2748C8.70611 28.8847 8.70817 28.4555 8.75099 28H19.92C20.3282 28 20.6246 27.799 20.7939 27.6424C20.964 27.485 21.0878 27.2994 21.1775 27.1415C21.3588 26.8223 21.5099 26.4177 21.639 26.0009C21.9016 25.1528 22.1377 24.0372 22.3351 22.9063C22.6026 21.3739 22.8143 19.7216 22.922 18.5393C24.7126 18.3196 26.7275 18.1838 28.9943 18.1528C28.9499 21.8571 28.6275 24.9512 27.3688 27.175C26.7032 28.3509 25.7707 29.2875 24.4363 29.9416C23.0866 30.6032 21.275 31 18.8268 31C13.7342 31 11.0911 30.8968 9.73121 30.7964C9.38167 30.7705 9.12273 30.7453 8.93291 30.7229ZM20.8831 18.8411C14.0718 20.0349 11.0485 22.5682 9.7362 24.8631C9.51867 25.2434 9.34365 25.6242 9.20416 26H19.5146C19.5765 25.8605 19.6492 25.6654 19.7285 25.4093C19.9534 24.6831 20.1723 23.6659 20.3649 22.5624C20.5939 21.2504 20.774 19.8866 20.8831 18.8411Z" fill="black"/>
<path d="M8.13944 31.5873L7.49196 32.3493C7.36115 32.2382 7.26115 32.0953 7.20158 31.9343L8.13944 31.5873Z" fill="black"/>
<path d="M5 10C4.44772 10 4 10.4477 4 11C4 11.5523 4.44772 12 5 12H38.0048C38.5571 12 39.0048 11.5523 39.0048 11C39.0048 10.4477 38.5571 10 38.0048 10H5Z" fill="black"/>
<path d="M4.37534 34.2192C4.8066 33.8742 5.4359 33.9441 5.78091 34.3753C6.00179 34.6514 6.56429 34.9759 7.539 35.2553C8.46309 35.5202 9.57632 35.6956 10.6741 35.8089C11.7656 35.9215 12.8098 35.9695 13.5835 35.9892C13.9695 35.999 14.2861 36.0017 14.5052 36.002C14.6147 36.0021 14.6997 36.0017 14.7566 36.0012L14.8205 36.0005L14.8358 36.0003L14.8392 36.0002L14.8484 36H30.5C31.0523 36 31.5 36.4478 31.5 37C31.5 37.5523 31.0523 38 30.5 38H14.865L14.847 38.0003L14.774 38.0011C14.7109 38.0016 14.6192 38.0021 14.5027 38.002C14.2698 38.0017 13.9368 37.9988 13.5327 37.9886C12.726 37.968 11.6273 37.9179 10.4688 37.7983C9.31661 37.6794 8.0727 37.4888 6.98786 37.1778C5.95364 36.8814 4.85543 36.4201 4.21917 35.6247C3.87416 35.1935 3.94408 34.5642 4.37534 34.2192Z" fill="black"/>
</svg>

<svg
  xmlns="http://www.w3.org/2000/svg"
  width="24"
  height="24"
  viewBox="0 0 24 24"
  fill="none"
  stroke="currentColor"
  stroke-width="2"
  stroke-linecap="round"
  stroke-linejoin="round"
>
  <path
    fill-rule="evenodd"
    d="m42.12 16.173 1.806 4.45-1.853.753-1.664-4.1-9.413.791c-.038 3.77-.347 7.372-1.887 10.093a8.6 8.6 0 0 1-3.792 3.577C23.615 32.572 21.48 33 18.827 33c-5.11 0-7.81-.103-9.243-.21-.715-.052-1.136-.107-1.395-.156a2.4 2.4 0 0 1-.33-.082 1.3 1.3 0 0 1-.254-.12 1 1 0 0 1-.083-.058l-.015-.012-.007-.006c-.004-.003-.008-.007.64-.769-.938.347-.939.346-.939.346v-.002l-.003-.006-.005-.014a4 4 0 0 1-.063-.192 8 8 0 0 1-.14-.523 10.5 10.5 0 0 1-.259-1.81c-.083-1.488.116-3.499 1.269-5.516 1.744-3.05 5.499-5.851 13-7.075V14a1 1 0 1 1 2 0v2.517c2.066-.24 4.382-.37 6.977-.371l10.327-.869 1.741-5.575 1.91.596zM8.933 30.723A8.5 8.5 0 0 1 8.75 28H19.92c.408 0 .705-.201.874-.358s.294-.343.383-.5c.182-.32.333-.724.462-1.141.263-.848.499-1.964.696-3.095a58 58 0 0 0 .587-4.367c1.79-.22 3.805-.355 6.072-.386-.044 3.704-.366 6.798-1.625 9.022a6.6 6.6 0 0 1-2.933 2.767c-1.35.661-3.161 1.058-5.61 1.058-5.092 0-7.735-.103-9.095-.204-.35-.026-.608-.05-.798-.073m11.95-11.882c-6.811 1.194-9.834 3.727-11.147 6.022q-.324.571-.532 1.137h10.31q.095-.209.215-.59c.224-.727.443-1.744.636-2.848.229-1.312.409-2.675.518-3.72"
    clip-rule="evenodd"
  />
  <path d="m8.14 31.587-.648.762a1 1 0 0 1-.29-.415z" />
  <path d="M5 10a1 1 0 1 0 0 2h33.005a1 1 0 1 0 0-2z" />
  <path d="M4.375 34.22a1 1 0 0 1 1.406.155c.22.276.783.6 1.758.88.924.265 2.037.44 3.135.554a39 39 0 0 0 4.083.192h.082l.01-.001H30.5a1 1 0 0 1 0 2H14.847l-.073.001-.271.001a40.498 40.498 0 0 1-4.034-.204c-1.152-.119-2.396-.31-3.481-.62-1.034-.297-2.133-.758-2.769-1.553a1 1 0 0 1 .156-1.406" />
</svg>
